;FLAVOR:Marlin
;Print time:00:19
;Filament used: 0m
;Layer height: 0.3

;Generated with Cura_SteamEngine 3.6.0
M82 ;absolute extrusion mode
;Basic settings:; Layer height: 0.3 ; Walls: 4 ; Fill: 18 ; Speed: 60.0 ; Temperature: 210 ; Filament Diameter: 1.75 ; Support Structures: false ; Support Angle: 65
;Print time: 00:19
;Print weight: 5.0g
M104 S220.0
T0
G28
G90
M106 S0
G92 E0
G1 Z0.5 F2000
M109 S220.0
G1 Z0.2 E0 F2000
G1 X65 E7 F1500
G1 X12 Y2 E14 F1500

G92 E0
G1 F3600 E-0.8
;LAYER_COUNT:30
;LAYER:0
M107
G1 F1200.000000 X72.73 Y56.51 E3.18
G0 F3600 X82.732 Y66.514 Z0.3
G92 E0

;TYPE:SKIRT
G1 F3600 E0
G1 F1800 X83.067 Y66.101 E0.02388
G1 X83.46 Y65.742 E0.04778
G1 X83.902 Y65.447 E0.07164
G1 X84.383 Y65.221 E0.0955
G1 X84.975 Y65.053 E0.12313
G1 X92.252 Y63.655 E0.45585
G1 X94.877 Y63.011 E0.57721
G1 X95.481 Y62.917 E0.60466
G1 X98.989 Y62.68 E0.76253
G1 X104.405 Y62.065 E1.00728
G1 X111.01 Y60.899 E1.30844
G1 X111.635 Y60.845 E1.33661
G1 X129.372 Y60.897 E2.13302
G1 X129.903 Y60.939 E2.15694
G1 X130.421 Y61.059 E2.18081
G1 X130.915 Y61.256 E2.20469
G1 X131.374 Y61.524 E2.22856
G1 X131.787 Y61.858 E2.25241
G1 X132.146 Y62.251 E2.27631
G1 X132.442 Y62.692 E2.30016
G1 X132.669 Y63.174 E2.32408
G1 X132.821 Y63.683 E2.34793
G1 X132.902 Y64.43 E2.38167
G1 X132.907 Y66.97 E2.49572
G1 X132.883 Y67.385 E2.51438
G1 X132.488 Y70.794 E2.66848
G1 X132.102 Y76.255 E2.91429
G1 X132.025 Y81.721 E3.15975
G1 X132.257 Y87.159 E3.40414
G1 X132.909 Y93.714 E3.69994
G1 X132.906 Y96.515 E3.82571
G1 X132.865 Y97.045 E3.84958
G1 X132.746 Y97.563 E3.87345
G1 X132.55 Y98.058 E3.89735
G1 X132.283 Y98.517 E3.92119
G1 X131.949 Y98.931 E3.94508
G1 X131.557 Y99.291 E3.96898
G1 X131.116 Y99.588 E3.99285
G1 X130.636 Y99.816 E4.01671
G1 X130.126 Y99.968 E4.0406
G1 X129.366 Y100.051 E4.07493
G1 X111.887 Y100.051 E4.85976
G1 X111.357 Y100.011 E4.88362
G1 X105.381 Y98.554 E5.15983
G1 X102.713 Y98.019 E5.28201
G1 X100.023 Y97.56 E5.40454
G1 X95.239 Y96.927 E5.62122
G1 X94.718 Y96.818 E5.64512
G1 X89.498 Y94.788 E5.89662
G1 X84.519 Y93.109 E6.13255
G1 X84.029 Y92.902 E6.15643
G1 X83.576 Y92.624 E6.1803
G1 X83.17 Y92.281 E6.20416
G1 X82.819 Y91.881 E6.22806
G1 X82.533 Y91.433 E6.25192
G1 X82.317 Y90.947 E6.2758
G1 X82.176 Y90.434 E6.29969
G1 X82.11 Y89.696 E6.33296
G1 X82.17 Y86.197 E6.49009
G1 X82.406 Y80.649 E6.73943
G1 X82.328 Y75.158 E6.98601
G1 X82.093 Y70.993 E7.17332
G1 X82.103 Y68.515 E7.28459
G1 X82.145 Y67.985 E7.30846
G1 X82.266 Y67.467 E7.33235
G1 X82.463 Y66.973 E7.35623
G1 X82.732 Y66.514 E7.38012
G0 F3600 X83.09 Y66.633
G1 F1800 X83.421 Y66.254 E7.40271
G1 X83.809 Y65.931 E7.42538
G1 X84.242 Y65.674 E7.44799
G1 X84.711 Y65.489 E7.47062
G1 X92.342 Y64.004 E7.81972
G1 X94.962 Y63.361 E7.94085
G1 X95.505 Y63.276 E7.96553
G1 X99.009 Y63.039 E8.12322
G1 X104.459 Y62.42 E8.3695
G1 X111.072 Y61.253 E8.67102
G1 X111.634 Y61.205 E8.69635
G1 X129.371 Y61.257 E9.49277
G1 X129.874 Y61.298 E9.51543
G1 X130.363 Y61.419 E9.53804
G1 X130.827 Y61.615 E9.56066
G1 X131.255 Y61.882 E9.58331
G1 X131.635 Y62.213 E9.60594
G1 X131.958 Y62.6 E9.62857
G1 X132.215 Y63.033 E9.65118
G1 X132.401 Y63.501 E9.67379
G1 X132.511 Y63.993 E9.69643
G1 X132.542 Y64.431 E9.71615
G1 X132.526 Y67.343 E9.84693
G1 X132.129 Y70.772 E10.00192
G1 X131.742 Y76.241 E10.2481
G1 X131.665 Y81.731 E10.49463
G1 X131.898 Y87.195 E10.74019
G1 X132.549 Y93.713 E11.03433
G1 X132.546 Y96.514 E11.1601
G1 X132.506 Y97.017 E11.18276
G1 X132.386 Y97.506 E11.20537
G1 X132.191 Y97.971 E11.22801
G1 X131.925 Y98.399 E11.25063
G1 X131.594 Y98.78 E11.2733
G1 X131.208 Y99.103 E11.2959
G1 X130.775 Y99.362 E11.31855
G1 X130.307 Y99.548 E11.34116
G1 X129.816 Y99.659 E11.36377
G1 X129.366 Y99.691 E11.38402
G1 X111.887 Y99.691 E12.16885
G1 X111.385 Y99.651 E12.19146
G1 X105.445 Y98.2 E12.46603
G1 X102.774 Y97.664 E12.58835
G1 X100.106 Y97.209 E12.70988
G1 X95.286 Y96.571 E12.92819
G1 X94.793 Y96.465 E12.95083
G1 X89.618 Y94.448 E13.20023
G1 X84.634 Y92.768 E13.43639
G1 X84.171 Y92.57 E13.459
G1 X83.745 Y92.301 E13.48162
G1 X83.366 Y91.968 E13.50427
G1 X83.045 Y91.579 E13.52692
G1 X82.79 Y91.145 E13.54952
G1 X82.606 Y90.676 E13.57214
G1 X82.499 Y90.183 E13.59479
G1 X82.47 Y89.702 E13.61643
G1 X82.53 Y86.212 E13.77316
G1 X82.766 Y80.659 E14.02272
G1 X82.688 Y75.155 E14.26988
G1 X82.453 Y70.994 E14.45702
G1 X82.463 Y68.516 E14.56828
G1 X82.505 Y68.014 E14.5909
G1 X82.626 Y67.525 E14.61352
G1 X82.822 Y67.061 E14.63614
G1 X83.09 Y66.633 E14.65881
G1 F3600 E13.85881
;MESH:C:\Program Files (x86)\Tinkerine Suite 3\TinkerineSuite\util\CuraEngine\temp_stls\temp_saved_scene.stl
G0 F3600 X94.162 Y88.488
;TYPE:WALL-INNER
G1 F3600 E14.65881
G1 F1800 X94.162 Y70.072 E15.48571
G1 X86.893 Y70.072 E15.8121
G1 X86.894 Y69.78 E15.82521
G1 X96.269 Y69.78 E16.18451
G1 X96.292 Y67.698 E16.278
G1 X105.339 Y67.698 E16.68422
G1 X111.175 Y65.917 E16.9582
G1 X111.874 Y65.635 E16.99204
G1 X128.119 Y65.641 E17.72146
G1 X128.119 Y65.702 E17.7242
G1 X119.768 Y65.702 E17.78982
G1 X119.764 Y92.471 E18.99178
G1 X119.181 Y93.121 E19.03099
G1 X120.004 Y94.97 E19.12186
G1 X128.119 Y94.97 E19.48623
G1 X128.118 Y95.261 E19.4993
G1 X119.951 Y95.261 E19.79598
G1 X112.078 Y95.261 E20.14949
G1 X104.606 Y92.891 E20.50147
G1 X104.606 Y92.172 E20.53375
G1 X96.293 Y92.171 E20.90701
G1 X96.281 Y88.557 E21.06929
G1 X86.894 Y88.549 E21.49077
G1 X86.894 Y88.488 E21.49351
G1 X94.162 Y88.488 E21.55198
G0 F3600 X93.802 Y88.128
G1 F1800 X93.802 Y70.432 E22.34655
G1 X86.713 Y70.432 E22.66486
G1 X86.533 Y70.432 E22.67294
G1 X86.534 Y69.42 E22.71553
G1 X95.913 Y69.42 E23.13666
G1 X95.936 Y67.338 E23.23015
G1 X105.285 Y67.338 E23.64993
G1 X111.055 Y65.577 E23.92081
G1 X111.804 Y65.275 E23.95707
G1 X128.479 Y65.281 E24.7058
G1 X128.479 Y66.062 E24.74086
G1 X120.128 Y66.062 E25.11583
G1 X120.124 Y92.61 E26.30787
G1 X119.605 Y93.188 E26.34275
G1 X120.238 Y94.61 E26.41264
G1 X128.479 Y94.61 E26.78267
G1 X128.478 Y95.621 E26.82521
G1 X112.023 Y95.621 E27.56406
G1 X104.246 Y93.154 E27.93041
G1 X104.246 Y92.532 E27.95834
G1 X95.934 Y92.531 E28.33156
G1 X95.922 Y88.917 E28.49383
G1 X86.534 Y88.909 E28.91536
G1 X86.534 Y88.128 E28.95043
G1 X93.802 Y88.128 E29.27677
G0 F3600 X93.442 Y87.768
G1 F1800 X93.442 Y70.792 E30.03901
G1 X86.353 Y70.792 E30.35732
G1 X86.173 Y70.792 E30.3654
G1 X86.174 Y69.06 E30.44032
G1 X95.557 Y69.06 E30.86163
G1 X95.578 Y67.179 E30.94609
G1 X95.606 Y67.097 E30.94998
G1 X95.779 Y66.978 E30.95962
G1 X105.231 Y66.978 E31.38402
G1 X110.935 Y65.237 E31.6518
G1 X111.734 Y64.915 E31.69048
G1 X128.839 Y64.921 E32.45852
G1 X128.839 Y66.422 E32.52592
G1 X120.488 Y66.422 E32.90088
G1 X120.484 Y92.701 E34.08084
G1 X120.434 Y92.804 E34.08601
G1 X120.029 Y93.255 E34.11322
G1 X120.472 Y94.25 E34.16213
G1 X128.839 Y94.25 E34.53782
G1 X128.838 Y95.981 E34.61269
G1 X111.968 Y95.981 E35.37017
G1 X103.886 Y93.417 E35.75089
G1 X103.886 Y92.892 E35.77446
G1 X95.777 Y92.891 E36.13856
G1 X95.682 Y92.851 E36.14319
G1 X95.609 Y92.777 E36.14786
G1 X95.575 Y92.686 E36.15222
G1 X95.563 Y89.277 E36.30529
G1 X86.174 Y89.269 E36.72687
G1 X86.174 Y87.768 E36.79426
G1 X93.442 Y87.768 E37.12061
G0 F3600 X93.082 Y87.408
;TYPE:WALL-OUTER
G1 F1800 X93.082 Y71.152 E37.85052
G1 X85.993 Y71.152 E38.16882
G1 X85.813 Y71.152 E38.17691
G1 X85.814 Y68.7 E38.28415
G1 X95.201 Y68.7 E38.70564
G1 X95.219 Y67.129 E38.77618
G1 X95.334 Y66.856 E38.7896
G1 X95.668 Y66.633 E38.80792
G1 X105.177 Y66.618 E39.23495
G1 X110.815 Y64.897 E39.49964
G1 X111.665 Y64.555 E39.54078
G1 X128.834 Y64.559 E40.31169
G1 X129.199 Y64.592 E40.32814
G1 X129.199 Y66.782 E40.42647
G1 X120.848 Y66.782 E40.80144
G1 X120.832 Y92.801 E41.96979
G1 X120.72 Y93.025 E41.98108
G1 X120.453 Y93.322 E41.99902
G1 X120.706 Y93.89 E42.02694
G1 X129.199 Y93.89 E42.40828
G1 X129.198 Y96.341 E42.51548
G1 X111.913 Y96.341 E43.2916
G1 X103.526 Y93.68 E43.68669
G1 X103.526 Y93.252 E43.7059
G1 X95.683 Y93.241 E44.0581
G1 X95.452 Y93.131 E44.06965
G1 X95.291 Y92.949 E44.0806
G1 X95.215 Y92.722 E44.09141
G1 X95.204 Y89.637 E44.22993
G1 X86.168 Y89.63 E44.63566
G1 X85.814 Y89.597 E44.65162
G1 X85.814 Y87.408 E44.74991
G1 X93.082 Y87.408 E45.07625
G0 F3600 X93.082 Y87.208
G1 F3600 E44.27625
G0 F3600 X94.512 Y88.205
;TYPE:SKIN
G1 F3600 E45.07625
G1 F1800 X94.512 Y70.13 E45.88784
G1 X96.615 Y70.13 E45.98227
G1 X96.638 Y68.048 E46.07576
G1 X105.391 Y68.048 E46.46878
G1 X111.292 Y66.247 E46.74581
G1 X111.943 Y65.985 E46.77731
G1 X119.418 Y65.988 E47.11295
G1 X119.414 Y92.337 E48.29605
G1 X118.769 Y93.057 E48.33946
G1 X119.595 Y94.911 E48.43059
G1 X112.133 Y94.911 E48.76564
G1 X104.956 Y92.635 E49.10372
G1 X104.956 Y91.822 E49.14022
G1 X96.641 Y91.821 E49.51357
G1 X96.629 Y88.207 E49.67585
G1 X94.512 Y88.205 E49.7709
G1 F3600 E48.9709
G0 F3600 X97.261 Y91.661
G1 F3600 E49.7709
G1 F1800 X96.797 Y91.196 E49.8004
G0 F3600 X96.795 Y90.686
G1 F1800 X97.77 Y91.661 E49.86231
G0 F3600 X98.28 Y91.661
G1 F1800 X96.794 Y90.175 E49.95667
G0 F3600 X96.792 Y89.664
G1 F1800 X98.789 Y91.661 E50.08348
G0 F3600 X99.298 Y91.661
G1 F1800 X96.79 Y89.154 E50.24271
G0 F3600 X96.788 Y88.642
G1 F1800 X99.807 Y91.661 E50.43441
G0 F3600 X100.316 Y91.661
G1 F1800 X96.787 Y88.132 E50.6585
G0 F3600 X96.701 Y88.046
G1 F1800 X94.67 Y86.016 E50.78744
G0 F3600 X94.67 Y86.525
G1 F1800 X96.192 Y88.046 E50.88406
G0 F3600 X95.682 Y88.046
G1 F1800 X94.67 Y87.034 E50.94832
G0 F3600 X94.67 Y87.543
G1 F1800 X95.173 Y88.045 E50.98023
G1 F3600 E50.18023
G0 F3600 X94.67 Y85.506
G1 F3600 E50.98023
G1 F1800 X100.825 Y91.661 E51.37107
G0 F3600 X101.334 Y91.661
G1 F1800 X94.67 Y84.997 E51.79423
G0 F3600 X94.67 Y84.488
G1 F1800 X101.843 Y91.661 E52.24972
G0 F3600 X102.352 Y91.661
G1 F1800 X94.67 Y83.979 E52.73752
G0 F3600 X94.67 Y83.47
G1 F1800 X102.862 Y91.661 E53.25768
G0 F3600 X103.371 Y91.661
G1 F1800 X94.67 Y82.961 E53.81016
G0 F3600 X94.67 Y82.452
G1 F1800 X103.88 Y91.661 E54.39496
G0 F3600 X104.389 Y91.661
G1 F1800 X94.67 Y81.943 E55.01209
G0 F3600 X94.67 Y81.433
G1 F1800 X104.898 Y91.661 E55.66156
G0 F3600 X105.115 Y91.878
G1 F1800 X106.051 Y92.814 E55.721
G1 X106.079 Y92.842
G1 F3600 E54.921
G0 F3600 X106.796 Y93.05
G1 F3600 E55.721
G1 F1800 X94.67 Y80.924 E56.491
G0 F3600 X94.67 Y80.415
G1 F1800 X107.542 Y93.287 E57.30837
G1 X107.57 Y93.315
G1 F3600 E56.50837
G0 F3600 X108.287 Y93.523
G1 F3600 E57.30837
G1 F1800 X94.67 Y79.906 E58.17305
G0 F3600 X94.67 Y79.397
G1 F1800 X109.033 Y93.759 E59.08506
G1 X109.061 Y93.787
G1 F3600 E58.28506
G0 F3600 X109.779 Y93.996
G1 F3600 E59.08506
G1 F1800 X94.67 Y78.888 E60.04445
G0 F3600 X94.67 Y78.379
G1 F1800 X110.524 Y94.232 E61.05115
G1 X110.552 Y94.26
G1 F3600 E60.25115
G0 F3600 X111.269 Y94.468
G1 F3600 E61.05115
G1 F1800 X94.67 Y77.87 E62.10515
G0 F3600 X94.67 Y77.361
G1 F1800 X112.014 Y94.704 E63.20646
G0 F3600 X112.569 Y94.75
G1 F1800 X94.67 Y76.851 E64.34304
G0 F3600 X94.67 Y76.342
G1 F1800 X113.079 Y94.75 E65.51198
G0 F3600 X113.588 Y94.75
G1 F1800 X94.67 Y75.833 E66.71324
G0 F3600 X94.67 Y75.324
G1 F1800 X114.097 Y94.75 E67.94682
G0 F3600 X114.606 Y94.75
G1 F1800 X94.67 Y74.815 E69.21272
G0 F3600 X94.67 Y74.306
G1 F1800 X115.115 Y94.75 E70.51094
G0 F3600 X115.624 Y94.75
G1 F1800 X94.67 Y73.797 E71.84149
G0 F3600 X94.67 Y73.288
G1 F1800 X116.133 Y94.75 E73.20435
G0 F3600 X116.642 Y94.75
G1 F1800 X94.67 Y72.778 E74.59957
G0 F3600 X94.67 Y72.269
G1 F1800 X117.152 Y94.75 E76.02714
G0 F3600 X117.661 Y94.75
G1 F1800 X94.67 Y71.76 E77.48704
G0 F3600 X94.67 Y71.251
G1 F1800 X118.17 Y94.75 E78.97925
G0 F3600 X118.679 Y94.75
G1 F1800 X94.67 Y70.742 E80.50379
G0 F3600 X94.727 Y70.289
G1 F1800 X119.188 Y94.75 E82.05706
G0 F3600 X119.066 Y94.12
G1 F1800 X95.236 Y70.289 E83.57029
G0 F3600 X95.745 Y70.289
G1 F1800 X118.656 Y93.2 E85.02514
G0 F3600 X118.775 Y92.81
G1 F1800 X96.254 Y70.289 E86.45522
G0 F3600 X96.764 Y70.289
G1 F1800 X119.015 Y92.541 E87.86818
G0 F3600 X119.254 Y92.271
G1 F1800 X96.777 Y69.794 E89.29547
G0 F3600 X96.783 Y69.29
G1 F1800 X119.254 Y91.761 E90.72238
G0 F3600 X119.254 Y91.252
G1 F1800 X96.788 Y68.787 E92.14893
G0 F3600 X96.793 Y68.283
G1 F1800 X119.254 Y90.743 E93.57517
G0 F3600 X119.254 Y90.234
G1 F1800 X97.227 Y68.208 E94.97385
G0 F3600 X97.737 Y68.208
G1 F1800 X119.254 Y89.725 E96.34018
G0 F3600 X119.254 Y89.216
G1 F1800 X98.246 Y68.208 E97.67418
G0 F3600 X98.755 Y68.208
G1 F1800 X119.254 Y88.707 E98.97587
G0 F3600 X119.254 Y88.198
G1 F1800 X99.264 Y68.208 E100.24523
G0 F3600 X99.773 Y68.208
G1 F1800 X119.254 Y87.689 E101.48227
G0 F3600 X119.254 Y87.179
G1 F1800 X100.282 Y68.208 E102.68696
G0 F3600 X100.791 Y68.208
G1 F1800 X119.254 Y86.671 E103.85935
G0 F3600 X119.254 Y86.162
G1 F1800 X101.3 Y68.208 E104.99943
G0 F3600 X101.809 Y68.208
G1 F1800 X119.254 Y85.653 E106.10719
G0 F3600 X119.254 Y85.144
G1 F1800 X102.319 Y68.208 E107.18259
G0 F3600 X102.828 Y68.208
G1 F1800 X119.254 Y84.635 E108.22567
G0 F3600 X119.254 Y84.125
G1 F1800 X103.337 Y68.208 E109.2364
G0 F3600 X103.846 Y68.208
G1 F1800 X119.254 Y83.616 E110.2148
G0 F3600 X119.254 Y83.107
G1 F1800 X104.355 Y68.208 E111.16089
G0 F3600 X104.864 Y68.208
G1 F1800 X119.254 Y82.598 E112.07465
G0 F3600 X119.254 Y82.089
G1 F1800 X105.373 Y68.208 E112.95609
G0 F3600 X105.773 Y68.099
G1 F1800 X119.255 Y81.581 E113.8122
G0 F3600 X119.255 Y81.071
G1 F1800 X106.163 Y67.979 E114.64354
G0 F3600 X106.553 Y67.861
G1 F1800 X119.255 Y80.562 E115.45008
G0 F3600 X119.255 Y80.053
G1 F1800 X106.944 Y67.742 E116.23183
G0 F3600 X107.333 Y67.622
G1 F1800 X119.255 Y79.544 E116.98887
G0 F3600 X119.255 Y79.035
G1 F1800 X107.724 Y67.503 E117.72112
G0 F3600 X108.113 Y67.384
G1 F1800 X119.255 Y78.526 E118.42864
G0 F3600 X119.255 Y78.017
G1 F1800 X108.504 Y67.265 E119.11135
G0 F3600 X108.894 Y67.146
G1 F1800 X119.255 Y77.508 E119.76931
G0 F3600 X119.255 Y76.998
G1 F1800 X109.284 Y67.027 E120.40247
G0 F3600 X109.674 Y66.908
G1 F1800 X119.256 Y76.49 E121.01092
G0 F3600 X119.256 Y75.981
G1 F1800 X110.063 Y66.789 E121.59464
G0 F3600 X110.454 Y66.67
G1 F1800 X119.256 Y75.472 E122.15357
G0 F3600 X119.256 Y74.963
G1 F1800 X110.844 Y66.551 E122.68773
G0 F3600 X111.234 Y66.431
G1 F1800 X119.256 Y74.454 E123.19716
G0 F3600 X119.256 Y73.944
G1 F1800 X111.605 Y66.294 E123.68296
G0 F3600 X111.968 Y66.147
G1 F1800 X119.256 Y73.435 E124.14575
G0 F3600 X119.256 Y72.926
G1 F1800 X112.475 Y66.146 E124.57631
G0 F3600 X112.985 Y66.146
G1 F1800 X119.256 Y72.417 E124.97452
G0 F3600 X119.256 Y71.908
G1 F1800 X113.494 Y66.146 E125.34041
G0 F3600 X114.003 Y66.146
G1 F1800 X119.256 Y71.399 E125.67397
G0 F3600 X119.257 Y70.89
G1 F1800 X114.513 Y66.147 E125.97518
G0 F3600 X115.022 Y66.147
G1 F1800 X119.257 Y70.381 E126.24407
G0 F3600 X119.257 Y69.872
G1 F1800 X115.531 Y66.147 E126.48064
G0 F3600 X116.04 Y66.147
G1 F1800 X119.257 Y69.363 E126.68489
G0 F3600 X119.257 Y68.854
M104 S210
G1 F1800 X116.549 Y66.147 E126.85681
G0 F3600 X117.059 Y66.147
G1 F1800 X119.257 Y68.345 E126.99639
G0 F3600 X119.257 Y67.836
G1 F1800 X117.568 Y66.147 E127.10364
G0 F3600 X118.077 Y66.147
G1 F1800 X119.257 Y67.327 E127.17857
G0 F3600 X119.257 Y66.818
G1 F1800 X118.586 Y66.147 E127.22118
G0 F3600 X119.095 Y66.147
G1 F1800 X119.257 Y66.308 E127.23143
G1 F3600 E126.43143
G0 F3600 X105.115 Y92.387
G1 F3600 E127.23143
G1 F1800 X105.305 Y92.577 E127.2435
G1 F3600 E126.4435
;MESH:NONMESH
G0 F3600 X93.862 Y88.188
;TIME_ELAPSED:107.156574
;LAYER:1
M106 S255
;MESH:C:\Program Files (x86)\Tinkerine Suite 3\TinkerineSuite\util\CuraEngine\temp_stls\temp_saved_scene.stl
G0 F7800 X93.862 Y88.188 Z0.6
;TYPE:WALL-INNER
G1 F3600 E127.2435
G1 F2700 X93.862 Y70.372 E128.04346
G1 X85.777 Y70.372 E128.40648
G1 X85.777 Y69.48 E128.44653
G1 X95.764 Y69.48 E128.89496
G1 X95.789 Y67.21 E128.99689
G1 X95.815 Y67.188 E128.99842
G1 X105.946 Y67.187 E129.45332
G1 X109.288 Y66.168 E129.6102
G1 X111.889 Y65.125 E129.73602
G1 X128.772 Y65.129 E130.49409
G1 X129.229 Y65.175 E130.51471
G1 X129.229 Y66.002 E130.55185
G1 X120.278 Y66.002 E130.95376
G1 X120.274 Y92.662 E132.15082
G1 X119.82 Y93.333 E132.1872
G1 X120.534 Y94.67 E132.25526
G1 X129.23 Y94.67 E132.64572
G1 X129.23 Y95.561 E132.68573
G1 X112.024 Y95.561 E133.4583
G1 X104.306 Y93.111 E133.82188
